html/app/assets/img/ui/balloon.svg

<svg fill="none" height="96" viewBox="0 0 96 96" width="96" xmlns="http://www.w3.org/2000/svg"><circle cx="48" cy="48" fill="#f7bc9c" r="43.8425" stroke="#ffa78a" stroke-width="8" transform="matrix(.97270748 -.23203482 .23203482 .97270748 -9.827631 12.447713)"/><g style="fill-rule:evenodd;clip-rule:evenodd;fill:#e16464;stroke:#e16464;stroke-width:.5;stroke-miterlimit:2"><path d="m44.7298 74.4843v5.1302h10.2605v-5.1302h2.0521v5.1302c0 1.1296-.9177 2.0521-2.0521 2.0521h-10.2605c-1.1344 0-2.0521-.9225-2.0521-2.0521v-5.1302z"/><path d="m48.8333 74.4843v6.1562h-2.0521v-6.1562z"/><path d="m52.9383 74.4843v6.1562h-2.0521v-6.1562z"/><path d="m27.2881 36.5209c0-12.6 10.247-20.5209 22.573-20.5209 12.3259 0 22.573 7.9209 22.573 20.5209 0 9.0452-3.7424 15.1619-7.3749 20.2215-.4917.6849-.9764 1.344-1.4478 1.9852-1.2876 1.751-2.4763 3.3675-3.4388 5.0062-1.2974 2.2085-2.1032 4.3339-2.1032 6.6466v1.026h-16.4167v-1.026c0-2.3127-.8058-4.4381-2.1031-6.6466-.9626-1.6387-2.1512-3.2552-3.4388-5.0062-.4714-.6412-.9561-1.3003-1.4478-1.9852-3.6326-5.0596-7.3749-11.1763-7.3749-20.2215zm22.573-18.4688c-11.4742 0-20.5209 7.2645-20.5209 18.4688 0 8.3976 3.44 14.0804 6.9897 19.0247.456.6352.9186 1.2642 1.3778 1.8886 1.3094 1.7805 2.5907 3.5229 3.6113 5.2602 1.2242 2.0841 2.136 4.2567 2.3419 6.6599h12.4003c.206-2.4032 1.1178-4.5758 2.342-6.6599 1.0205-1.7373 2.3019-3.4797 3.6112-5.2602.4592-.6244.9218-1.2534 1.3778-1.8886 3.5498-4.9443 6.9898-10.6271 6.9898-19.0247 0-11.2043-9.0468-18.4688-20.5209-18.4688z"/><path d="m35.4966 36.521c0-12.1323 6.3296-20.5209 14.3646-20.5209v2.0521c-6.3296 0-12.3125 6.7969-12.3125 18.4688 0 8.5222 2.2504 14.7864 4.5306 19.9802.4144.9438.8374 1.8684 1.2501 2.7703.7091 1.5495 1.3876 3.0324 1.9393 4.4322.8844 2.2436 1.5144 4.4359 1.5144 6.6768h-2.0521c0-1.8633-.5243-3.7752-1.3714-5.9243-.5349-1.3569-1.1705-2.7451-1.8597-4.2501-.4171-.9109-.8538-1.8646-1.2996-2.88-2.337-5.3232-4.7037-11.8845-4.7037-20.8051z" stroke-linejoin="round"/><path d="m62.1719 36.521c0-11.6719-5.9829-18.4688-12.3125-18.4688v-2.0521c8.035 0 14.3646 8.3886 14.3646 20.5209 0 8.9206-2.3667 15.4819-4.7038 20.8051-.4457 1.0154-.8824 1.9691-1.2995 2.8799-.6892 1.5051-1.3248 2.8933-1.8597 4.2502-.8471 2.1491-1.3714 4.061-1.3714 5.9243h-2.0521c0-2.2409.63-4.4332 1.5144-6.6768.5517-1.3998 1.2302-2.8827 1.9392-4.4322.4128-.9019.8358-1.8265 1.2502-2.7703 2.2802-5.1938 4.5306-11.458 4.5306-19.9802z" stroke-linejoin="round"/><path d="m47.4249 22.189c-.9596 3.1163-1.6697 7.8809-1.6697 14.332 0 6.4224 1.0125 13.2748 2.0377 19.3366.1883 1.113.3776 2.2028.5609 3.2583.313 1.8022.6086 3.5042.8518 5.0498.3849 2.4454.6538 4.5874.6538 6.2148h-2.0521c0-1.4508-.2441-3.4514-.6288-5.8958-.2411-1.532-.5315-3.2037-.8421-4.9919-.1839-1.0585-.3748-2.1578-.5668-3.293-1.0269-6.0712-2.0665-13.0704-2.0665-19.6788 0-6.5797.7218-11.5625 1.7606-14.9359.5178-1.6813 1.1294-3.0131 1.8073-3.9477.6497-.8957 1.5206-1.6373 2.5884-1.6373v2.0521c-.0655 0-.4025.0665-.9272.79-.4965.6846-1.0258 1.7832-1.5073 3.3468z" stroke-linejoin="round"/><path d="m54.255 21.5851c1.0389 3.3734 1.7606 8.3562 1.7606 14.9359 0 6.6084-1.0396 13.6076-2.0664 19.6788-.192 1.1352-.383 2.2345-.5668 3.293-.3106 1.7882-.601 3.4599-.8421 4.9919-.3847 2.4444-.6288 4.445-.6288 5.8958h-2.0521c0-1.6274.2689-3.7694.6537-6.2148.2433-1.5456.5389-3.2476.8519-5.0498.1833-1.0555.3726-2.1453.5608-3.2583 1.0253-6.0618 2.0378-12.9142 2.0378-19.3366 0-6.4511-.7101-11.2157-1.6698-14.332-.4815-1.5636-1.0107-2.6622-1.5072-3.3468-.5248-.7235-.8617-.79-.9272-.79v-2.0521c1.0678 0 1.9387.7416 2.5883 1.6373.6779.9346 1.2896 2.2664 1.8073 3.9477z" stroke-linejoin="round"/><path d="m58.0695 75.5102h-16.4167v-2.0521h16.4167z"/><path d="m22.2333 55.0522c.4626-2.9412 3.0094-5.1927 6.0812-5.1927v2.0521c-2.2661 0-4.1042 1.8388-4.1042 4.1042v1.026h-1.026c-2.8323 0-5.1303 2.3004-5.1303 5.1302 0 2.8299 2.298 5.1303 5.1303 5.1303h15.3906v2.052h-15.3906c-3.9663 0-7.1823-3.2197-7.1823-7.1823 0-3.6404 2.7144-6.6539 6.2313-7.1198z"/><path d="m22.6196 23.7974c-.536-.7146-1.7381-1.6417-4.5659-1.6417v-2.0521c3.2726 0 5.141 1.0876 6.1563 2.3953 1.0152-1.3077 2.8837-2.3953 6.1562-2.3953v2.0521c-2.8277 0-4.0299.9271-4.5659 1.6417-.2857.381-.4281.7615-.4987 1.044-.0352.1408-.0517.2539-.0594.3254-.0038.0356-.0054.0603-.006.0722-.0002.0051-.0003.0079-.0003.008v-.0001l.0001-.0038v-.0039-.0025-.0014c0-.0007 0-.0014-1.026-.0014-1.0261 0-1.0261.0007-1.0261.0014v.0014.0025l.0001.0039v.0038.0001c0-.0001 0-.0029-.0003-.008-.0006-.0119-.0021-.0366-.006-.0722-.0076-.0715-.0241-.1846-.0593-.3254-.0707-.2825-.213-.663-.4988-1.044z"/><path d="m77.4546 46.8632c-.4262-1.8137-2.0536-3.1598-3.9953-3.1598v2.0521c1.1342 0 2.0521.9162 2.0521 2.052 0 .5667.4594 1.0261 1.0261 1.0261 1.7 0 3.0781 1.3774 3.0781 3.0781s-1.3781 3.0782-3.0781 3.0782h-8.2084v2.0521h8.2084c2.833 0 5.1302-2.2959 5.1302-5.1303 0-2.5212-1.8176-4.6162-4.2131-5.0485z" stroke-linejoin="round"/></g></svg>

<svg width="96" height="96" viewBox="0 0 96 96" fill="none" xmlns="http://www.w3.org/2000/svg">
<circle cx="48" cy="48" r="43.8425" transform="rotate(-13.4169 48 48)" fill="#F7BC9C" stroke="#FFA78A" stroke-width="8"/>
<path fill-rule="evenodd" clip-rule="evenodd" d="M44.7298 74.4843V79.6145H54.9903V74.4843H57.0424V79.6145C57.0424 80.7441 56.1247 81.6666 54.9903 81.6666H44.7298C43.5954 81.6666 42.6777 80.7441 42.6777 79.6145V74.4843H44.7298Z" fill="#E16464" stroke="#E16464" stroke-width="0.5" stroke-miterlimit="2"/>
<path fill-rule="evenodd" clip-rule="evenodd" d="M48.8333 74.4843V80.6405H46.7812V74.4843H48.8333Z" fill="#E16464" stroke="#E16464" stroke-width="0.5" stroke-miterlimit="2"/>
<path fill-rule="evenodd" clip-rule="evenodd" d="M52.9383 74.4843V80.6405H50.8862V74.4843H52.9383Z" fill="#E16464" stroke="#E16464" stroke-width="0.5" stroke-miterlimit="2"/>
<path fill-rule="evenodd" clip-rule="evenodd" d="M27.2881 36.5209C27.2881 23.9209 37.5351 16 49.8611 16C62.187 16 72.4341 23.9209 72.4341 36.5209C72.4341 45.5661 68.6917 51.6828 65.0592 56.7424C64.5675 57.4273 64.0828 58.0864 63.6114 58.7276C62.3238 60.4786 61.1351 62.0951 60.1726 63.7338C58.8752 65.9423 58.0694 68.0677 58.0694 70.3804V71.4064H41.6527V70.3804C41.6527 68.0677 40.8469 65.9423 39.5496 63.7338C38.587 62.0951 37.3984 60.4786 36.1108 58.7276C35.6394 58.0864 35.1547 57.4273 34.663 56.7424C31.0304 51.6828 27.2881 45.5661 27.2881 36.5209ZM49.8611 18.0521C38.3869 18.0521 29.3402 25.3166 29.3402 36.5209C29.3402 44.9185 32.7802 50.6013 36.3299 55.5456C36.7859 56.1808 37.2485 56.8098 37.7077 57.4342C39.0171 59.2147 40.2984 60.9571 41.319 62.6944C42.5432 64.7785 43.455 66.9511 43.6609 69.3543H56.0612C56.2672 66.9511 57.179 64.7785 58.4032 62.6944C59.4237 60.9571 60.7051 59.2147 62.0144 57.4342C62.4736 56.8098 62.9362 56.1808 63.3922 55.5456C66.942 50.6013 70.382 44.9185 70.382 36.5209C70.382 25.3166 61.3352 18.0521 49.8611 18.0521Z" fill="#E16464" stroke="#E16464" stroke-width="0.5" stroke-miterlimit="2"/>
<path fill-rule="evenodd" clip-rule="evenodd" d="M35.4966 36.521C35.4966 24.3887 41.8262 16.0001 49.8612 16.0001V18.0522C43.5316 18.0522 37.5487 24.8491 37.5487 36.521C37.5487 45.0432 39.7991 51.3074 42.0793 56.5012C42.4937 57.445 42.9167 58.3696 43.3294 59.2715C44.0385 60.821 44.717 62.3039 45.2687 63.7037C46.1531 65.9473 46.7831 68.1396 46.7831 70.3805H44.731C44.731 68.5172 44.2067 66.6053 43.3596 64.4562C42.8247 63.0993 42.1891 61.7111 41.4999 60.2061C41.0828 59.2952 40.6461 58.3415 40.2003 57.3261C37.8633 52.0029 35.4966 45.4416 35.4966 36.521Z" fill="#E16464" stroke="#E16464" stroke-width="0.5" stroke-miterlimit="2" stroke-linejoin="round"/>
<path fill-rule="evenodd" clip-rule="evenodd" d="M62.1719 36.521C62.1719 24.8491 56.189 18.0522 49.8594 18.0522V16.0001C57.8944 16.0001 64.224 24.3887 64.224 36.521C64.224 45.4416 61.8573 52.0029 59.5202 57.3261C59.0745 58.3415 58.6378 59.2952 58.2207 60.206C57.5315 61.7111 56.8959 63.0993 56.361 64.4562C55.5139 66.6053 54.9896 68.5172 54.9896 70.3805H52.9375C52.9375 68.1396 53.5675 65.9473 54.4519 63.7037C55.0036 62.3039 55.6821 60.821 56.3911 59.2715C56.8039 58.3696 57.2269 57.445 57.6413 56.5012C59.9215 51.3074 62.1719 45.0432 62.1719 36.521Z" fill="#E16464" stroke="#E16464" stroke-width="0.5" stroke-miterlimit="2" stroke-linejoin="round"/>
<path fill-rule="evenodd" clip-rule="evenodd" d="M47.4249 22.189C46.4653 25.3053 45.7552 30.0699 45.7552 36.521C45.7552 42.9434 46.7677 49.7958 47.7929 55.8576C47.9812 56.9706 48.1705 58.0604 48.3538 59.1159C48.6668 60.9181 48.9624 62.6201 49.2056 64.1657C49.5905 66.6111 49.8594 68.7531 49.8594 70.3805H47.8073C47.8073 68.9297 47.5632 66.9291 47.1785 64.4847C46.9374 62.9527 46.647 61.281 46.3364 59.4928C46.1525 58.4343 45.9616 57.335 45.7696 56.1998C44.7427 50.1286 43.7031 43.1294 43.7031 36.521C43.7031 29.9413 44.4249 24.9585 45.4637 21.5851C45.9815 19.9038 46.5931 18.572 47.271 17.6374C47.9207 16.7417 48.7916 16.0001 49.8594 16.0001V18.0522C49.7939 18.0522 49.4569 18.1187 48.9322 18.8422C48.4357 19.5268 47.9064 20.6254 47.4249 22.189Z" fill="#E16464" stroke="#E16464" stroke-width="0.5" stroke-miterlimit="2" stroke-linejoin="round"/>
<path fill-rule="evenodd" clip-rule="evenodd" d="M54.255 21.5851C55.2939 24.9585 56.0156 29.9413 56.0156 36.521C56.0156 43.1294 54.976 50.1286 53.9492 56.1998C53.7572 57.335 53.5662 58.4343 53.3824 59.4928C53.0718 61.281 52.7814 62.9527 52.5403 64.4847C52.1556 66.9291 51.9115 68.9297 51.9115 70.3805H49.8594C49.8594 68.7531 50.1283 66.6111 50.5131 64.1657C50.7564 62.6201 51.052 60.9181 51.365 59.1159C51.5483 58.0604 51.7376 56.9706 51.9258 55.8576C52.9511 49.7958 53.9636 42.9434 53.9636 36.521C53.9636 30.0699 53.2535 25.3053 52.2938 22.189C51.8123 20.6254 51.2831 19.5268 50.7866 18.8422C50.2618 18.1187 49.9249 18.0522 49.8594 18.0522V16.0001C50.9272 16.0001 51.7981 16.7417 52.4477 17.6374C53.1256 18.572 53.7373 19.9038 54.255 21.5851Z" fill="#E16464" stroke="#E16464" stroke-width="0.5" stroke-miterlimit="2" stroke-linejoin="round"/>
<path fill-rule="evenodd" clip-rule="evenodd" d="M58.0695 75.5102H41.6528V73.4581H58.0695V75.5102Z" fill="#E16464" stroke="#E16464" stroke-width="0.5" stroke-miterlimit="2"/>
<path fill-rule="evenodd" clip-rule="evenodd" d="M22.2333 55.0522C22.6959 52.111 25.2427 49.8595 28.3145 49.8595V51.9116C26.0484 51.9116 24.2103 53.7504 24.2103 56.0158V57.0418H23.1843C20.352 57.0418 18.054 59.3422 18.054 62.172C18.054 65.0019 20.352 67.3023 23.1843 67.3023H38.5749V69.3543H23.1843C19.218 69.3543 16.002 66.1346 16.002 62.172C16.002 58.5316 18.7164 55.5181 22.2333 55.0522Z" fill="#E16464" stroke="#E16464" stroke-width="0.5" stroke-miterlimit="2"/>
<path fill-rule="evenodd" clip-rule="evenodd" d="M22.6196 23.7974C22.0836 23.0828 20.8815 22.1557 18.0537 22.1557V20.1036C21.3263 20.1036 23.1947 21.1912 24.21 22.4989C25.2252 21.1912 27.0937 20.1036 30.3662 20.1036V22.1557C27.5385 22.1557 26.3363 23.0828 25.8003 23.7974C25.5146 24.1784 25.3722 24.5589 25.3016 24.8414C25.2664 24.9822 25.2499 25.0953 25.2422 25.1668C25.2384 25.2024 25.2368 25.2271 25.2362 25.239C25.236 25.2441 25.2359 25.2469 25.2359 25.247L25.2359 25.2469L25.236 25.2431L25.236 25.2392L25.236 25.2367L25.236 25.2353C25.236 25.2346 25.236 25.2339 24.21 25.2339C23.1839 25.2339 23.1839 25.2346 23.1839 25.2353L23.1839 25.2367L23.1839 25.2392L23.184 25.2431L23.184 25.2469L23.184 25.247C23.184 25.2469 23.184 25.2441 23.1837 25.239C23.1831 25.2271 23.1816 25.2024 23.1777 25.1668C23.1701 25.0953 23.1536 24.9822 23.1184 24.8414C23.0477 24.5589 22.9054 24.1784 22.6196 23.7974Z" fill="#E16464" stroke="#E16464" stroke-width="0.5" stroke-miterlimit="2"/>
<path fill-rule="evenodd" clip-rule="evenodd" d="M77.4546 46.8632C77.0284 45.0495 75.401 43.7034 73.4593 43.7034V45.7555C74.5935 45.7555 75.5114 46.6717 75.5114 47.8075C75.5114 48.3742 75.9708 48.8336 76.5375 48.8336C78.2375 48.8336 79.6156 50.211 79.6156 51.9117C79.6156 53.6124 78.2375 54.9899 76.5375 54.9899H68.3291V57.042H76.5375C79.3705 57.042 81.6677 54.7461 81.6677 51.9117C81.6677 49.3905 79.8501 47.2955 77.4546 46.8632Z" fill="#E16464" stroke="#E16464" stroke-width="0.5" stroke-miterlimit="2" stroke-linejoin="round"/>
</svg>
